static/logos/disney-logotype-black.svg

<svg width="64" height="26" viewBox="0 0 64 26" fill="none" xmlns="http://www.w3.org/2000/svg">
<g clip-path="url(#clip0_1204_74)">
<path d="M32.1912 2.95558C32.6137 2.97523 33.0174 3.13664 33.337 3.41377C33.7726 3.82615 33.8868 4.51377 33.6806 5.06394C32.8791 6.71378 30.973 7.81577 29.6704 8.18034C28.8912 8.36362 27.906 8.36361 27.1955 8.0887C26.8515 8.29489 26.5613 8.96126 26.1413 8.68435C25.5334 8.20955 26.0596 7.46648 25.7087 6.93922C25.6363 6.83065 25.454 6.82268 25.3624 6.64505C24.8809 5.59087 25.4769 4.5825 26.1413 3.78066C27.249 2.54486 30.4268 1.16795 32.1912 2.95558ZM28.5017 3.78033C27.8828 3.89488 27.1839 4.16415 26.806 4.60541C26.4282 5.04668 26.1875 5.47632 26.4166 5.93451C27.2187 5.33886 27.6082 4.51378 28.502 4.00976C28.5017 3.91779 28.6392 3.84906 28.5017 3.78033ZM32.2373 4.00976C30.6559 3.87197 29.4642 5.06394 28.3413 6.20943C28.2726 6.39271 27.8602 6.5989 28.181 6.80509C29.6937 6.94254 31.1373 6.50759 32.2373 5.4989C32.5584 5.20107 32.7868 4.8116 32.6271 4.39889C32.5584 4.23886 32.3967 4.07849 32.2373 4.00976ZM45.9404 10.8385C46.6738 12.6262 47.2924 15.4444 45.9404 17.1633C45.5738 17.5757 44.9323 17.9558 44.52 17.6444C43.0072 16.4302 42.3661 14.6884 41.4265 13.1298C41.289 13.0611 41.289 13.2447 41.2203 13.3135C40.8766 14.8946 41.5181 16.9571 40.4413 18.1942C40.029 18.263 39.6432 18.0508 39.5017 17.6444C38.9745 16.0175 39.524 14.3215 39.6614 12.6946C39.9825 11.8695 40.1199 10.9073 40.8305 10.2884C41.9763 10.7466 42.5261 12.0302 43.1902 12.9698C43.672 13.68 44.0611 14.4822 44.6109 15.1237C45.092 14.9175 44.8553 14.2886 44.8404 13.9091C44.6564 12.4196 44.244 11.0447 43.8542 9.62399C43.832 9.25743 43.6258 8.63853 44.0146 8.40944C45.0472 8.86796 45.4818 9.94472 45.9404 10.8385ZM39.0199 10.2884C39.0199 10.6323 38.745 11.062 38.5153 11.1135C36.3156 11.4571 33.8636 11.2509 31.8014 11.9382C31.7326 12.1902 32.0305 12.236 32.1908 12.3048C33.9549 12.5797 35.8116 12.6484 37.5305 13.084C38.4392 13.3148 38.7683 14.3906 38.837 15.284C38.8792 15.9886 38.6082 16.8422 37.9203 17.3237C36.2249 18.4008 33.6355 18.3546 31.9162 17.3698C31.2592 17.0013 30.633 16.4076 30.5871 15.6742C30.5911 15.0918 30.8395 14.6333 31.2519 14.4138C32.902 13.7491 34.9413 14.1163 36.3624 14.9636C36.4534 15.4222 35.9573 15.3973 35.7199 15.5596C34.1385 16.4763 32.9472 14.529 31.4806 15.2385C31.2744 15.376 31.1254 15.7595 31.3661 15.8804C33.1763 16.6825 35.193 16.1094 36.9803 15.6054C37.1865 15.5367 37.4388 15.3305 37.4614 15.1243C37.3927 14.3909 36.5679 14.2308 36.0407 14.0247C34.4825 13.6352 32.7639 13.6352 31.0908 13.4748C30.7701 13.4061 30.3614 13.1826 30.2661 12.925C30.0828 12.3752 30.0828 11.6188 30.4952 11.1606C32.6261 9.28133 35.8571 9.44204 38.5611 9.94605C38.7447 10.0135 38.9509 10.0822 39.0199 10.2884ZM29.006 11.1593C29.2122 13.3589 29.3268 15.3989 29.281 17.7131C29.2351 18.0106 28.8915 18.0797 28.6624 18.1942C28.2958 18.263 27.822 18.1849 27.6769 17.9881C27.15 17.1397 27.3333 15.9946 27.2875 14.9633C27.3562 13.3367 27.3333 11.572 27.7918 10.0593C27.8795 9.83947 28.1355 9.6469 28.3417 9.78402C28.8915 10.0593 28.9831 10.6094 29.006 11.1593ZM54.4658 10.8385C54.576 11.0238 54.6912 11.31 54.4658 11.4342C53.4345 11.8924 52.037 11.6862 50.845 11.8237C50.5243 12.0986 50.272 12.5568 50.3862 12.9695C50.5014 13.0382 50.604 13.1428 50.7305 13.1295C51.4633 13.1757 52.5636 12.7859 53.0454 13.4732C53.1629 13.6777 53.0294 14.4414 52.7017 14.4586C51.8076 14.5738 50.3374 14.3464 49.9054 14.5738C49.3556 14.9404 49.4011 15.6506 49.1949 16.224C49.5847 16.476 49.9927 16.218 50.4549 16.1549C51.3036 16.0175 52.2432 15.7655 53.0905 15.9487C53.2509 16.2466 53.4803 16.5676 53.3196 16.9342C51.875 18.08 50.0117 19.2544 48.0265 18.4237C47.2814 18.0897 46.9494 16.9571 47.2017 15.9952C47.3618 15.3076 48.072 14.6432 47.637 13.9098C47.5683 13.5887 47.7519 13.3141 48.0268 13.2454C48.7828 13.2454 48.6221 12.3058 49.0119 11.8701C48.5766 11.389 47.477 11.4119 47.5915 10.4494C48.1188 10.1745 48.7606 10.2661 49.3556 10.1745C50.7076 9.89923 52.22 9.73887 53.5959 9.89924C53.8698 9.95435 54.2367 10.4949 54.4658 10.8385ZM21.7416 5.61378C23.8563 7.3423 26.5998 10.2887 26.2562 13.68C25.8435 16.3615 23.002 18.3779 20.5958 19.0197C18.2584 19.707 15.3252 19.6382 12.9416 19.0884C12.7813 19.524 12.6209 20.0506 12.1169 20.2342C11.7961 20.3488 11.3834 20.28 11.1314 20.0738C10.4212 19.4091 10.994 18.1258 9.96269 17.7138C7.94596 16.8658 5.76887 15.1927 4.73793 13.1305C4.60047 12.7181 4.76084 12.3058 5.01285 11.985C6.59429 10.7247 8.58777 10.2206 10.5816 9.83084C10.6961 9.87666 10.6503 9.71629 10.742 9.67047C10.8565 8.29555 10.9023 6.89739 11.3376 5.65993C11.4369 5.48628 11.6813 5.43083 11.842 5.54538C13.1023 6.50759 12.5063 8.31846 13.0565 9.62432C15.4627 9.73887 17.8689 9.85342 19.7707 11.2058C20.4125 11.7327 20.5689 12.7391 20.3664 13.3141C20.1642 13.8882 19.4958 14.2996 18.8769 14.3447C18.4642 14.3447 17.6853 14.3849 17.7311 14.0701C17.7769 13.7551 19.1329 13.2394 18.7166 12.8094C18.1179 12.1915 15.1227 11.824 13.2663 11.5949C13.0373 11.5491 12.8271 11.6178 12.8271 11.8698C12.7813 13.6113 12.6438 15.536 12.9416 17.2095C12.9645 17.3243 13.102 17.4618 13.2169 17.484C16.4936 18.0113 19.954 17.7131 22.5206 15.8342C23.7122 14.8723 24.102 13.5193 23.8955 12.0302C22.8642 7.88251 18.5333 5.38435 14.9813 3.78033C11.5212 2.26795 7.69396 1.48869 3.59211 1.69521C2.93901 1.74302 1.90409 1.96846 1.89645 2.19955C1.88881 2.43064 3.06883 2.35793 2.92739 2.79521C2.78628 3.23215 1.587 2.97284 1.23173 2.86394C0.876466 2.75503 0.910997 2.24504 1.00264 1.9243C1.89645 0.343196 4.39063 0.215366 5.51719 0.159918C11.75 -0.000782535 17.7773 2.37287 21.7416 5.61378ZM10.5129 11.7553C8.93142 11.7782 7.25867 11.9385 5.79211 12.4884C5.49428 12.6029 5.12739 12.9237 5.35649 13.3135C5.95215 14.1153 6.80413 14.7737 7.60232 15.2382C8.40051 15.7021 9.45867 16.2924 10.4212 16.4302C10.6503 14.9404 10.6503 13.4738 10.6274 11.9385C10.5354 11.8927 10.6271 11.8011 10.5129 11.7553ZM57.8797 9.66981C57.811 11.6633 55.9543 12.9011 55.9543 14.8946C56.023 14.9633 56.0695 15.0549 56.1605 15.0098C57.6506 13.3825 59.1168 11.068 61.2939 10.3807C61.8676 10.3349 62.3859 10.8332 62.6004 11.2058C63.3568 12.7181 63.1742 14.8494 62.1197 16.2243C61.0316 17.574 59.1401 18.9283 56.9869 18.6989C56.0934 20.8989 55.4735 23.2135 55.1298 25.6197C54.9466 26.1008 54.5116 25.6655 54.2367 25.5738C52.3807 24.1073 53.9047 20.2249 54.0305 19.7295C54.1563 19.2355 54.6531 18.0701 55.0163 17.0942C54.1454 15.5364 54.6952 13.6568 55.4054 12.2131C55.9553 11.2506 56.7123 10.288 57.6058 9.55492C57.7193 9.55526 57.811 9.57817 57.8797 9.66981ZM61.5698 12.1447C61.2949 12.0989 61.18 12.4658 60.9513 12.5345C59.8974 13.7262 58.8429 14.9178 58.3156 16.3385C59.0265 16.4302 59.6218 15.972 60.241 15.72C61.2949 15.0553 61.9596 13.9559 61.8909 12.6952C61.8447 12.4884 61.6615 12.328 61.5698 12.1447Z" fill="black"/>
</g>
<defs>
<clipPath id="clip0_1204_74">
<rect width="64" height="26" fill="white"/>
</clipPath>
</defs>
</svg>

<svg xmlns="http://www.w3.org/2000/svg" width="157.538" height="64" fill="none" viewBox="0 0 64 26"><g clip-path="url(#a)"><path fill="#000" d="M32.191 2.956c.423.02.826.18 1.146.458.436.412.55 1.1.344 1.65-.802 1.65-2.708 2.752-4.01 3.116-.78.184-1.765.184-2.476-.091-.343.206-.634.872-1.054.595-.608-.474-.081-1.218-.432-1.745-.073-.108-.255-.116-.347-.294-.481-1.054.115-2.062.78-2.864 1.107-1.236 4.285-2.613 6.05-.825m-3.69.824c-.618.115-1.317.384-1.695.825-.378.442-.619.871-.39 1.33.803-.596 1.192-1.421 2.086-1.925 0-.092.137-.16 0-.23m3.736.23c-1.581-.138-2.773 1.054-3.896 2.2-.068.183-.48.389-.16.595 1.513.138 2.956-.297 4.056-1.306.321-.298.55-.687.39-1.1a.8.8 0 0 0-.39-.39m13.703 6.829c.734 1.787 1.352 4.605 0 6.324-.366.413-1.008.793-1.42.481-1.513-1.214-2.154-2.956-3.094-4.514-.137-.069-.137.115-.206.183-.343 1.582.298 3.644-.779 4.881a.825.825 0 0 1-.94-.55c-.526-1.626.023-3.322.16-4.95.322-.825.459-1.787 1.17-2.406 1.145.459 1.695 1.742 2.36 2.682.481.71.87 1.512 1.42 2.154.481-.207.244-.835.23-1.215-.185-1.49-.597-2.864-.987-4.285-.022-.367-.228-.985.16-1.215 1.033.459 1.468 1.536 1.926 2.43m-6.92-.55c0 .343-.275.773-.505.825-2.2.343-4.651.137-6.714.824-.068.252.23.298.39.367 1.764.275 3.62.343 5.34.779.908.23 1.237 1.307 1.306 2.2.042.705-.229 1.558-.917 2.04-1.695 1.077-4.285 1.03-6.004.046-.657-.369-1.283-.962-1.329-1.696.004-.582.253-1.04.665-1.26 1.65-.665 3.69-.298 5.11.55.091.458-.405.433-.642.596-1.581.916-2.773-1.031-4.24-.322-.206.138-.355.521-.114.642 1.81.803 3.827.23 5.614-.275.207-.068.459-.274.481-.48-.068-.734-.893-.894-1.42-1.1-1.558-.39-3.277-.39-4.95-.55-.32-.069-.73-.292-.825-.55-.183-.55-.183-1.306.23-1.764 2.13-1.88 5.361-1.719 8.065-1.215.184.068.39.136.459.342m-10.014.87c.206 2.2.32 4.24.275 6.554-.046.298-.39.367-.619.481-.366.069-.84-.01-.985-.206-.527-.848-.344-1.993-.39-3.025.07-1.626.046-3.391.505-4.904.087-.22.343-.412.55-.275.55.275.641.825.664 1.375m25.46-.32c.11.185.225.471 0 .595-1.032.458-2.429.252-3.621.39-.32.275-.573.733-.459 1.146.115.068.218.173.344.16.733.046 1.834-.344 2.315.343.118.205-.016.968-.343.986-.894.115-2.365-.113-2.797.115-.55.366-.504 1.077-.71 1.65.39.252.798-.006 1.26-.07.849-.137 1.788-.389 2.636-.205.16.298.39.619.229.985-1.445 1.146-3.308 2.32-5.294 1.49-.745-.334-1.077-1.467-.824-2.429.16-.687.87-1.352.435-2.085-.069-.321.115-.596.39-.665.756 0 .595-.94.985-1.375-.435-.481-1.535-.458-1.42-1.42.527-.275 1.169-.184 1.764-.275 1.352-.276 2.864-.436 4.24-.276.274.055.64.596.87.94M21.742 5.614c2.114 1.728 4.858 4.675 4.514 8.066-.413 2.682-3.254 4.698-5.66 5.34-2.338.687-5.27.618-7.654.068-.16.436-.321.963-.825 1.146-.32.115-.734.046-.986-.16-.71-.665-.137-1.948-1.168-2.36-2.017-.848-4.194-2.521-5.225-4.583-.138-.413.023-.825.275-1.146 1.581-1.26 3.575-1.764 5.569-2.154.114.046.068-.115.16-.16.114-1.375.16-2.774.596-4.011.099-.174.343-.23.504-.115 1.26.963.664 2.773 1.214 4.08 2.407.114 4.813.228 6.715 1.58.642.528.798 1.534.595 2.11-.202.573-.87.985-1.49 1.03-.412 0-1.19.04-1.145-.275.046-.315 1.402-.83.986-1.26-.6-.619-3.594-.986-5.45-1.215-.23-.046-.44.023-.44.275-.046 1.741-.183 3.666.115 5.34a.41.41 0 0 0 .275.274c3.277.527 6.737.23 9.304-1.65 1.191-.962 1.581-2.315 1.374-3.804-1.03-4.147-5.362-6.646-8.914-8.25A25.1 25.1 0 0 0 3.592 1.695c-.653.048-1.688.273-1.696.505-.007.23 1.173.158 1.031.595-.14.437-1.34.178-1.695.069-.356-.109-.321-.619-.23-.94C1.897.344 4.392.215 5.518.16 11.75 0 17.777 2.373 21.742 5.614m-11.23 6.141c-1.58.023-3.253.183-4.72.733-.298.115-.665.436-.436.825.596.802 1.448 1.46 2.246 1.925.799.464 1.857 1.054 2.82 1.192.228-1.49.228-2.956.205-4.491-.092-.046 0-.138-.114-.184M57.88 9.67c-.069 1.993-1.926 3.231-1.926 5.225.069.068.115.16.206.115 1.49-1.627 2.957-3.942 5.134-4.63.574-.045 1.092.453 1.306.826.757 1.512.574 3.643-.48 5.018-1.088 1.35-2.98 2.704-5.133 2.475a29.4 29.4 0 0 0-1.857 6.92c-.183.482-.618.047-.893-.045-1.856-1.467-.332-5.35-.206-5.844.125-.495.622-1.66.985-2.636-.87-1.558-.32-3.437.39-4.88.55-.963 1.306-1.926 2.2-2.66.113.001.205.024.274.116m3.69 2.475c-.275-.046-.39.32-.619.39-1.054 1.191-2.108 2.383-2.635 3.803.71.092 1.306-.366 1.925-.618 1.054-.665 1.719-1.764 1.65-3.025-.046-.207-.23-.367-.321-.55"/></g><defs><clipPath id="a"><path fill="#fff" d="M0 0h64v26H0z"/></clipPath></defs></svg>
